preferences/22/preferences-system-network-nis.svg

<svg width="22" height="22" version="1.1" viewBox="0 0 22 22" xmlns="http://www.w3.org/2000/svg" xmlns:xlink="http://www.w3.org/1999/xlink">
<defs>
<linearGradient id="linearGradient3403" x1="6.9492" x2="11.215" y1="4.5549" y2="59.052" gradientUnits="userSpaceOnUse">
<stop style="stop-color:#32373c" offset="0"/>
<stop style="stop-color:#1a1a1a" offset=".36805"/>
<stop style="stop-color:#31363b" offset="1"/>
</linearGradient>
<linearGradient id="linearGradient20558" x1="25.802" x2="25.111" y1="20.374" y2="58.913" gradientUnits="userSpaceOnUse">
<stop style="stop-color:#3d3d3d" offset="0"/>
<stop offset=".61772"/>
<stop style="stop-color:#3d3d3d" offset="1"/>
</linearGradient>
<linearGradient id="linearGradient4557" x1="43.5" x2="44.142" y1="64.012" y2=".30621" gradientTransform="translate(.36068 -.13017)" gradientUnits="userSpaceOnUse">
<stop style="stop-color:#141618" offset="0"/>
<stop style="stop-color:#686868" offset=".51821"/>
<stop style="stop-color:#31363b" offset="1"/>
</linearGradient>
<linearGradient id="a" x1="30" x2="30" y1="30" y2="2" gradientUnits="userSpaceOnUse">
<stop stop-color="#fdbc4b" offset="0"/>
<stop stop-color="#fed286" offset="1"/>
</linearGradient>
<linearGradient id="b" x1="38.691" x2="38.691" y1="14.355" y2="12.605" gradientTransform="matrix(.66667 0 0 16 -25.794 -199.68)" gradientUnits="userSpaceOnUse">
<stop stop-color="#1d1e1e" offset="0"/>
<stop stop-color="#44484c" offset="1"/>
</linearGradient>
<linearGradient id="c" x1="4" x2="4" y1="30" y2="27" gradientUnits="userSpaceOnUse">
<stop stop-opacity=".4" offset="0"/>
<stop stop-opacity=".2" offset="1"/>
</linearGradient>
<linearGradient id="d" x1="14" x2="28" y1="12" y2="26" gradientUnits="userSpaceOnUse">
<stop stop-color="#292c2f" offset="0"/>
<stop stop-opacity="0" offset="1"/>
</linearGradient>
<linearGradient id="e" x1="25" x2="25" y1="21" y2="7" gradientUnits="userSpaceOnUse">
<stop stop-color="#232629" offset="0"/>
<stop stop-color="#4d4d4d" offset="1"/>
</linearGradient>
</defs>
<g transform="matrix(.6709 0 0 .63995 1.5979 .44733)">
<path d="m4 2h24v28h-24z" fill="url(#a)" style="fill:url(#a)"/>
<path d="m4 2v28h2v-1h-1v-1h1v-26z" fill="url(#b)" style="fill:url(#b)"/>
<path d="m4 27v3h24v-1h-23v-1h23v-1z" fill="url(#c)" fill-rule="evenodd" style="fill:url(#c)"/>
<path d="m5 28h23v1h-23z" fill="#edf573"/>
<path d="m10 21 6 6h12v-10.247l-8.877-8.876-2.123-0.877-3 3 0.877 2.123 2.123 2.123-3 0.754-3 3z" fill="url(#d)" opacity=".2" style="fill:url(#d)"/>
<path d="m22 13a2 2 0 0 0-2 2v2h-1v4h6v-4h-1v-2a2 2 0 0 0-2-2zm0 1a1 1 0 0 1 1 1v2h-2v-2a1 1 0 0 1 1-1zm-5 0c-3.878 0-7 3.122-7 7h8v-1h-6.91a5.98 5.98 0 0 1 5.91-5c0.343 0 0.676 0.037 1 0.098v-1.012a6.654 6.654 0 0 0-1-0.086zm0-7c-1.662 0-3 1.338-3 3s1.338 3 3 3 3-1.338 3-3-1.338-3-3-3zm0 1c1.108 0 2 0.892 2 2s-0.892 2-2 2-2-0.892-2-2 0.892-2 2-2z" fill="url(#e)" style="fill:url(#e)"/>
</g>
<path transform="matrix(.33274 0 0 .33274 .46626 .36369)" d="m4.7043 3.9815-0.012938 56.82h53.904l1.0222-2.8664s-23.875 0.76639-32.844-4.1404c-10.516-5.7529-15.372-49.697-15.372-49.697z" style="fill:url(#linearGradient3403);mix-blend-mode:normal;stroke-linejoin:round;stroke-width:1.1624;stroke:url(#linearGradient20558)"/>
<rect transform="matrix(.31171 0 0 .31107 1.0253 1.0361)" x="1.0324" y=".59551" width="62.567" height="62.867" rx="5.803" ry="6.2447" style="fill:none;stroke-linejoin:round;stroke-miterlimit:7.8;stroke-opacity:.99515;stroke-width:3.7137;stroke:url(#linearGradient4557)"/>
</svg>

<?xml version="1.0" encoding="UTF-8" standalone="no"?>
<!-- Created with Inkscape (http://www.inkscape.org/) -->

<svg
   width="22"
   height="22"
   version="1.1"
   viewBox="0 0 22 22"
   id="svg22"
   sodipodi:docname="preferences-system-network-nis.svg"
   inkscape:version="1.1.2 (0a00cf5339, 2022-02-04)"
   xmlns:inkscape="http://www.inkscape.org/namespaces/inkscape"
   xmlns:sodipodi="http://sodipodi.sourceforge.net/DTD/sodipodi-0.dtd"
   xmlns:xlink="http://www.w3.org/1999/xlink"
   xmlns="http://www.w3.org/2000/svg"
   xmlns:svg="http://www.w3.org/2000/svg">
  <sodipodi:namedview
     id="namedview24"
     pagecolor="#ffffff"
     bordercolor="#666666"
     borderopacity="1.0"
     inkscape:showpageshadow="2"
     inkscape:pageopacity="0.0"
     inkscape:pagecheckerboard="0"
     inkscape:deskcolor="#d1d1d1"
     showgrid="false"
     inkscape:zoom="25.62"
     inkscape:cx="-2.0296643"
     inkscape:cy="16.783763"
     inkscape:window-width="3440"
     inkscape:window-height="1356"
     inkscape:window-x="0"
     inkscape:window-y="0"
     inkscape:window-maximized="1"
     inkscape:current-layer="svg22"
     inkscape:pageshadow="2" />
  <defs
     id="defs12">
    <linearGradient
       id="linearGradient1005-3-3"
       x1="5.2535"
       x2="9.3823996"
       y1="15.383"
       y2="2.9421"
       gradientTransform="matrix(0.99999,0,0,0.99999,1.632,-0.61743)"
       gradientUnits="userSpaceOnUse">
      <stop
         stop-color="#fa8200"
         offset="0"
         id="stop2" />
      <stop
         stop-color="#ff9600"
         offset=".36953"
         id="stop4" />
      <stop
         stop-color="#ffb400"
         offset="1"
         id="stop6" />
    </linearGradient>
    <filter
       id="filter4014"
       x="-0.062499933"
       y="-0.057692993"
       width="1.1249999"
       height="1.115386"
       color-interpolation-filters="sRGB">
      <feGaussianBlur
         stdDeviation="1.093751"
         id="feGaussianBlur9" />
    </filter>
    <linearGradient
       inkscape:collect="always"
       xlink:href="#linearGradient3487"
       id="linearGradient3403"
       gradientUnits="userSpaceOnUse"
       x1="6.9491749"
       y1="4.5549412"
       x2="11.215498"
       y2="59.052471" />
    <linearGradient
       id="linearGradient3487">
      <stop
         style="stop-color:#32373c;stop-opacity:1"
         offset="0"
         id="stop3481" />
      <stop
         id="stop3483"
         offset="0.36804965"
         style="stop-color:#1a1a1a;stop-opacity:1" />
      <stop
         style="stop-color:#31363b;stop-opacity:1"
         offset="1"
         id="stop3485" />
    </linearGradient>
    <linearGradient
       inkscape:collect="always"
       xlink:href="#linearGradient20604"
       id="linearGradient20558"
       gradientUnits="userSpaceOnUse"
       x1="25.802212"
       y1="20.373846"
       x2="25.111048"
       y2="58.912758" />
    <linearGradient
       id="linearGradient20604">
      <stop
         id="stop20598"
         offset="0"
         style="stop-color:#3d3d3d;stop-opacity:1" />
      <stop
         style="stop-color:#000000;stop-opacity:1"
         offset="0.61772454"
         id="stop20600" />
      <stop
         id="stop20602"
         offset="1"
         style="stop-color:#3d3d3d;stop-opacity:1" />
    </linearGradient>
    <filter
       inkscape:collect="always"
       style="color-interpolation-filters:sRGB"
       id="filter20720"
       x="-0.017024755"
       y="-0.016457183"
       width="1.0340491"
       height="1.0329144">
      <feGaussianBlur
         inkscape:collect="always"
         stdDeviation="0.14745661"
         id="feGaussianBlur20722" />
    </filter>
    <linearGradient
       gradientTransform="translate(0.36067797,-0.13016949)"
       xlink:href="#linearGradient4555"
       id="linearGradient4557"
       x1="43.499737"
       y1="64.011795"
       x2="44.141731"
       y2="0.30621234"
       gradientUnits="userSpaceOnUse" />
    <linearGradient
       id="linearGradient4555">
      <stop
         style="stop-color:#141618;stop-opacity:1"
         offset="0"
         id="stop4551" />
      <stop
         id="stop4559"
         offset="0.51820582"
         style="stop-color:#686868;stop-opacity:1" />
      <stop
         style="stop-color:#31363b;stop-opacity:1"
         offset="1"
         id="stop4553" />
    </linearGradient>
    <filter
       style="color-interpolation-filters:sRGB"
       id="filter4601"
       x="-0.030244762"
       width="1.0604895"
       y="-0.030100647"
       height="1.0602013">
      <feGaussianBlur
         stdDeviation="0.014790289"
         id="feGaussianBlur4603" />
    </filter>
    <linearGradient
       id="a"
       gradientUnits="userSpaceOnUse"
       x1="30"
       x2="30"
       y1="30"
       y2="2">
      <stop
         offset="0"
         stop-color="#fdbc4b"
         id="stop2-3" />
      <stop
         offset="1"
         stop-color="#fed286"
         id="stop4-8" />
    </linearGradient>
    <linearGradient
       id="b"
       gradientTransform="matrix(0.66667,0,0,16,-25.794,-199.679)"
       gradientUnits="userSpaceOnUse"
       x1="38.691002"
       x2="38.691002"
       y1="14.355"
       y2="12.605">
      <stop
         offset="0"
         stop-color="#1d1e1e"
         id="stop22" />
      <stop
         offset="1"
         stop-color="#44484c"
         id="stop24" />
    </linearGradient>
    <linearGradient
       id="c"
       gradientUnits="userSpaceOnUse"
       x1="4"
       x2="4"
       y1="30"
       y2="27">
      <stop
         offset="0"
         stop-opacity=".4"
         id="stop17" />
      <stop
         offset="1"
         stop-opacity=".2"
         id="stop19" />
    </linearGradient>
    <linearGradient
       id="d"
       gradientUnits="userSpaceOnUse"
       x1="14"
       x2="28"
       y1="12"
       y2="26">
      <stop
         offset="0"
         stop-color="#292c2f"
         id="stop12" />
      <stop
         offset="1"
         stop-opacity="0"
         id="stop14" />
    </linearGradient>
    <linearGradient
       id="e"
       gradientUnits="userSpaceOnUse"
       x1="25"
       x2="25"
       y1="21"
       y2="7">
      <stop
         offset="0"
         stop-color="#232629"
         id="stop7" />
      <stop
         offset="1"
         stop-color="#4d4d4d"
         id="stop9" />
    </linearGradient>
  </defs>
  <g
     id="g866"
     transform="matrix(0.67089642,0,0,0.6399458,1.5979082,0.44732525)">
    <path
       d="M 4,2 H 28 V 30 H 4 Z"
       fill="url(#a)"
       id="path27"
       style="fill:url(#a)" />
    <path
       d="M 4,2 V 30 H 6 V 29 H 5 V 28 H 6 V 2 Z"
       fill="url(#b)"
       id="path29"
       style="fill:url(#b)" />
    <path
       d="m 4,27 v 3 H 28 V 29 H 5 v -1 h 23 v -1 z"
       fill="url(#c)"
       fill-rule="evenodd"
       id="path31"
       style="fill:url(#c)" />
    <path
       d="m 5,28 h 23 v 1 H 5 Z"
       fill="#edf573"
       id="path33" />
    <path
       d="m 10,21 6,6 H 28 V 16.753 L 19.123,7.877 17,7 14,10 14.877,12.123 17,14.246 14,15 11,18 Z"
       fill="url(#d)"
       opacity="0.2"
       id="path35"
       style="fill:url(#d)" />
    <path
       d="m 22,13 a 2,2 0 0 0 -2,2 v 2 h -1 v 4 h 6 v -4 h -1 v -2 a 2,2 0 0 0 -2,-2 z m 0,1 a 1,1 0 0 1 1,1 v 2 h -2 v -2 a 1,1 0 0 1 1,-1 z m -5,0 c -3.878,0 -7,3.122 -7,7 h 8 V 20 H 11.09 A 5.98,5.98 0 0 1 17,15 c 0.343,0 0.676,0.037 1,0.098 V 14.086 A 6.654,6.654 0 0 0 17,14 Z m 0,-7 c -1.662,0 -3,1.338 -3,3 0,1.662 1.338,3 3,3 1.662,0 3,-1.338 3,-3 0,-1.662 -1.338,-3 -3,-3 z m 0,1 c 1.108,0 2,0.892 2,2 0,1.108 -0.892,2 -2,2 -1.108,0 -2,-0.892 -2,-2 0,-1.108 0.892,-2 2,-2 z"
       fill="url(#e)"
       id="path37"
       style="fill:url(#e)" />
  </g>
  <path
     style="display:inline;mix-blend-mode:normal;fill:url(#linearGradient3403);fill-opacity:1;stroke:url(#linearGradient20558);stroke-width:1.16242;stroke-linecap:butt;stroke-linejoin:round;stroke-miterlimit:4;stroke-dasharray:none;stroke-opacity:1;filter:url(#filter20720)"
     d="M 4.7043071,3.9814882 4.6913695,60.80196 H 58.59546 l 1.022155,-2.866369 c 0,0 -23.87537,0.766388 -32.844441,-4.140386 C 16.257548,48.042344 11.401114,4.0978197 11.401114,4.0978197 Z"
     id="path1686"
     sodipodi:nodetypes="ccccscc"
     transform="matrix(0.33274458,0,0,0.33274458,0.46626342,0.36368954)"
     inkscape:label="folder" />
  <rect
     style="display:inline;fill:none;fill-opacity:1;stroke:url(#linearGradient4557);stroke-width:3.71366;stroke-linejoin:round;stroke-miterlimit:7.8;stroke-dasharray:none;stroke-opacity:0.995146;filter:url(#filter4601)"
     id="rect4539"
     width="62.567089"
     height="62.866646"
     x="1.0323594"
     y="0.59551275"
     ry="6.2447233"
     rx="5.8029528"
     transform="matrix(0.31170938,0,0,0.31107405,1.0253284,1.0360651)"
     inkscape:label="contour" />
</svg>
